CN4T1/180/aimg/sandia.svg

<svg clip-rule="evenodd" fill-rule="evenodd" stroke-linejoin="round" stroke-miterlimit="2" viewBox="0 0 42 31" xmlns="http://www.w3.org/2000/svg"><g fill-rule="nonzero"><path d="m0-9.094c-1.644 2.74-2.307 5.561-3.012 8.365-.053.213-.025.488.066.689.589 1.296 1.195 2.565 2.235 3.606 1.453 1.454 3.3 2.214 5.077 3.107.268.135.582.176 1.143.338-.568-1.281-1.003-2.325-1.49-3.345-.429-.9-1.052-1.728-1.351-2.663-.822-2.578-1.533-5.191-2.256-7.8-.186-.672-.251-1.377-.412-2.297m32.724-8.287c-1.908-.13-3.631.692-5.418 1.125-2.074.503-4.083 1.22-6.204 1.619-4.763.895-9.486 1.998-14.222 3.026-.971.211-1.492.767-1.732 1.809-.404 1.754.004 3.404.321 5.078.46 2.427 1.62 4.559 2.945 6.602.649.999 1.365 1.996 2.603 2.322 1.193.315 2.409.735 3.62.753 3.605.054 7.135-.342 10.156-2.64 1.4-1.066 2.924-1.985 4.023-3.401 1.798-2.315 3.164-4.856 4.05-7.66.584-1.85.554-3.758.62-5.651.023-.637-.294-1.288-.465-1.929-.096-.363-.212-.72-.319-1.079 1.356.253 1.774.526 1.735 1.635-.08 2.229-.256 4.459-.502 6.677-.238 2.137-1.33 3.995-2.439 5.749-1.084 1.711-2.393 3.339-3.862 4.731-1.22 1.157-2.869 1.848-4.232 2.875-1.563 1.178-3.422 1.474-5.216 1.767-2.556.418-5.142.193-7.594-.77-.557-.219-1.155-.528-1.529-.97-.826-.971-1.604-2.004-2.251-3.099-2.227-3.764-3.249-7.803-2.547-12.219-1.016.225-2.019.448-3.001.666-.029.375-.058.611-.063.848-.083 3.415 1.131 6.558 2.238 9.678.777 2.186 2.017 4.211 3.095 6.285.505.971 1.269 1.643 2.452 1.729.468.033.923.232 1.385.35 2.587.659 5.171 1.382 7.848.436.045-.015.095-.013.14-.028 1.254-.435 2.574-.74 3.746-1.336 2.504-1.271 4.874-2.773 6.958-4.688 2.048-1.881 3.992-3.872 5.029-6.491.922-2.329 1.942-4.66 2.208-7.191.211-2.02.34-4.05.436-6.079.041-.867-.225-1.155-1.11-1.09-.977.071-1.936.365-2.902.561m5.047.684c-.064 4.191-.9 8.779-2.726 13.211-1.346 3.266-3.693 5.619-6.255 7.854-2.057 1.795-4.319 3.308-6.768 4.483-2.153 1.034-4.476 1.664-6.882 1.729-.982.026-1.985-.232-2.958-.448-2.594-.577-5.282-.814-7.69-2.085-1.052-.554-2.113-1.09-3.18-1.612-1.997-.978-3.416-2.556-4.598-4.382-.536-.829-.81-1.725-.603-2.718.625-2.996 1.606-5.872 2.933-8.631.103-.215.269-.416.31-.642.287-1.554 1.333-1.885 2.716-1.781.466.035.959-.039 1.413-.159 3.777-1.003 7.646-1.571 11.448-2.434 3.94-.895 7.954-1.462 11.812-2.773 2.826-.96 5.774-1.572 8.68-2.287 1.334-.328 2.731.634 2.348 2.675" fill="#231f20" transform="translate(3.973 19.64485)"/><path d="m0-16.079c.017.111.032.222.048.332.775.355 1.542.963 2.412.181.215-.193.283-.548.418-.828-.315-.144-.669-.457-.94-.398-.666.146-1.294.464-1.938.713m-.314 2.538c.168.831.293 1.635 1.154 2.027.553.252 1.253.098 1.332-.386.065-.399-.053-1.02-.33-1.242-.575-.461-1.299-.788-2.156-.399m-4.152 8.505c.594-.374.64-.916.353-1.478-.379-.741-.517-1.7-1.53-2.021-.507 2.373-.39 2.709 1.177 3.499m1.248-5.287c.359.774.646 1.52 1.041 2.203.315.544.913.538 1.364.24.231-.153.448-.737.335-.925-.3-.502-.745-.941-1.205-1.317-.375-.307-.809-.707-1.535-.201m-9.7 3.428c-.734.833-1.226 2.478-1.033 3.146.148.517.731.986 1.138.916.535-.094.942-.845.753-1.475-.246-.816-.535-1.619-.858-2.587m3.161-.08c-.613 1.03-.491 2.032.029 2.992.231.426.665.769 1.19.419.451-.301.815-.771.507-1.328-.429-.773-.775-1.649-1.726-2.083m-5.867-1.479c-.367.139-.616.153-.696.277-.591.905-1.173 1.819-1.694 2.765-.097.177.024.564.167.766.444.622 1.189.504 1.551-.311.46-1.036.692-2.144.672-3.497m-1.954-1.711c-.629-.17-.911-.344-1.14-.291-.882.203-1.705.529-2.386 1.188-.471.456-.509.903-.172 1.385.313.449 1.132.557 1.532.158.69-.692 1.305-1.46 2.166-2.44m20.868-9.029c.106.359.223.716.319 1.078.171.641.488 1.292.465 1.929-.066 1.894-.036 3.801-.62 5.651-.886 2.805-2.252 5.346-4.05 7.661-1.099 1.415-2.623 2.335-4.023 3.4-3.021 2.298-6.551 2.694-10.156 2.641-1.211-.018-2.427-.439-3.621-.753-1.237-.326-1.954-1.324-2.602-2.323-1.325-2.043-2.485-4.175-2.945-6.602-.317-1.673-.725-3.324-.321-5.078.24-1.041.761-1.597 1.732-1.808 4.736-1.029 9.459-2.132 14.221-3.027 2.122-.399 4.131-1.115 6.205-1.618 1.787-.433 3.51-1.255 5.418-1.125z" fill="#ed1c24" transform="translate(33.385 21.43185)"/><path d="m0-26.662c.967-.197 1.926-.49 2.902-.562.885-.064 1.152.224 1.111 1.091-.097 2.029-.226 4.059-.437 6.078-.265 2.532-1.286 4.862-2.208 7.192-1.037 2.619-2.98 4.61-5.028 6.491-2.085 1.915-4.454 3.417-6.958 4.688-1.173.595-2.492.9-3.746 1.336-.045.015-.096.012-.141.028-2.677.946-5.261.222-7.848-.437-.461-.117-.917-.316-1.384-.35-1.184-.085-1.948-.758-2.452-1.729-1.079-2.073-2.319-4.098-3.095-6.284-1.108-3.121-2.321-6.263-2.238-9.678.004-.237.034-.474.062-.848.982-.218 1.985-.441 3.001-.667-.702 4.417.32 8.456 2.547 12.219.647 1.096 1.426 2.129 2.251 3.1.374.441.973.75 1.529.969 2.452.964 5.038 1.188 7.594.771 1.795-.293 3.653-.59 5.217-1.768 1.362-1.026 3.011-1.717 4.231-2.874 1.469-1.392 2.778-3.02 3.862-4.732 1.11-1.754 2.202-3.611 2.439-5.749.246-2.218.423-4.448.502-6.677.039-1.108-.379-1.381-1.734-1.634z" fill="#e0eecb" transform="translate(36.697 28.92585)"/><path d="m0-16.105c.161.92.226 1.625.412 2.297.723 2.609 1.434 5.222 2.256 7.8.299.935.922 1.763 1.351 2.663.487 1.02.922 2.064 1.49 3.345-.561-.162-.875-.203-1.143-.338-1.777-.893-3.624-1.653-5.077-3.107-1.04-1.041-1.646-2.31-2.235-3.606-.091-.201-.119-.476-.066-.689.705-2.804 1.368-5.625 3.012-8.365" fill="#2c6439" transform="translate(3.973 26.65585)"/><g fill="#231f20"><path d="m0-2.495c-.861.98-1.476 1.748-2.166 2.439-.399.4-1.219.291-1.532-.157-.337-.482-.299-.929.173-1.386.68-.658 1.504-.984 2.385-1.187.229-.053.511.121 1.14.291" transform="translate(15.807 13.76185)"/><path d="m0-4.43c.021 1.353-.212 2.461-.672 3.497-.362.815-1.107.933-1.551.311-.143-.202-.264-.589-.167-.766.521-.947 1.103-1.86 1.694-2.766.08-.123.329-.137.696-.276" transform="translate(17.761 17.40885)"/><path d="m.747-3.889c-.75.728-.781 1.669-.924 2.542-.103.628.398.947.924 1.08.612.152.905-.316.979-.796.167-1.079-.056-2.064-.979-2.826" transform="matrix(-.941673 .336529 .336529 .941673 25.64 17.86885)"/><path d="m-.232-4.129c-.298.976-.566 1.786-.791 2.608-.173.635.253 1.375.791 1.455.408.06.979-.424 1.114-.945.175-.673-.359-2.304-1.114-3.118" transform="matrix(-.999666 .0258407 .0258407 .999666 20.341 18.67085)"/><path d="m0-2.242c.726-.506 1.16-.106 1.535.201.46.376.904.816 1.205 1.318.113.188-.104.771-.336.924-.45.298-1.049.305-1.363-.239-.395-.684-.683-1.43-1.041-2.204" transform="translate(30.167 13.35085)"/><path d="m0 3.499c-1.567-.79-1.685-1.126-1.177-3.499 1.013.321 1.151 1.28 1.53 2.021.287.562.241 1.104-.353 1.478" transform="translate(28.919 12.89785)"/><path d="m1.189-2.532c-.795.501-.922 1.285-.854 2.019.032.354.485.795.854.96.448.2.963-.298 1.057-.899.147-.933-.455-1.481-1.057-2.08" transform="matrix(-.550898 .834572 .834572 .550898 35.839 8.29285)"/><path d="m0-.523c.644-.249 1.272-.567 1.938-.713.271-.059.625.254.94.398-.135.28-.203.635-.418.828-.87.782-1.637.174-2.412-.181-.016-.11-.031-.221-.048-.332" transform="translate(33.385 5.87585)"/></g></g></svg>

<?xml version="1.0" encoding="UTF-8" standalone="no"?>
<!DOCTYPE svg PUBLIC "-//W3C//DTD SVG 1.1//EN" "http://www.w3.org/Graphics/SVG/1.1/DTD/svg11.dtd">
<svg width="100%" height="100%" viewBox="0 0 42 31" version="1.1" xmlns="http://www.w3.org/2000/svg" xmlns:xlink="http://www.w3.org/1999/xlink" xml:space="preserve" xmlns:serif="http://www.serif.com/" style="fill-rule:evenodd;clip-rule:evenodd;stroke-linejoin:round;stroke-miterlimit:2;">
    <g transform="matrix(1,0,0,1,-326,-280)">
        <g transform="matrix(1,0,0,1,-151.183,1.89485)">
            <g transform="matrix(1,0,0,1,481.156,297.75)">
                <path d="M0,-9.094C-1.644,-6.354 -2.307,-3.533 -3.012,-0.729C-3.065,-0.516 -3.037,-0.241 -2.946,-0.04C-2.357,1.256 -1.751,2.525 -0.711,3.566C0.742,5.02 2.589,5.78 4.366,6.673C4.634,6.808 4.948,6.849 5.509,7.011C4.941,5.73 4.506,4.686 4.019,3.666C3.59,2.766 2.967,1.938 2.668,1.003C1.846,-1.575 1.135,-4.188 0.412,-6.797C0.226,-7.469 0.161,-8.174 0,-9.094M32.724,-17.381C30.816,-17.511 29.093,-16.689 27.306,-16.256C25.232,-15.753 23.223,-15.036 21.102,-14.637C16.339,-13.742 11.616,-12.639 6.88,-11.611C5.909,-11.4 5.388,-10.844 5.148,-9.802C4.744,-8.048 5.152,-6.398 5.469,-4.724C5.929,-2.297 7.089,-0.165 8.414,1.878C9.063,2.877 9.779,3.874 11.017,4.2C12.21,4.515 13.426,4.935 14.637,4.953C18.242,5.007 21.772,4.611 24.793,2.313C26.193,1.247 27.717,0.328 28.816,-1.088C30.614,-3.403 31.98,-5.944 32.866,-8.748C33.45,-10.598 33.42,-12.506 33.486,-14.399C33.509,-15.036 33.192,-15.687 33.021,-16.328C32.925,-16.691 32.809,-17.048 32.702,-17.407C34.058,-17.154 34.476,-16.881 34.437,-15.772C34.357,-13.543 34.181,-11.313 33.935,-9.095C33.697,-6.958 32.605,-5.1 31.496,-3.346C30.412,-1.635 29.103,-0.007 27.634,1.385C26.414,2.542 24.765,3.233 23.402,4.26C21.839,5.438 19.98,5.734 18.186,6.027C15.63,6.445 13.044,6.22 10.592,5.257C10.035,5.038 9.437,4.729 9.063,4.287C8.237,3.316 7.459,2.283 6.812,1.188C4.585,-2.576 3.563,-6.615 4.265,-11.031C3.249,-10.806 2.246,-10.583 1.264,-10.365C1.235,-9.99 1.206,-9.754 1.201,-9.517C1.118,-6.102 2.332,-2.959 3.439,0.161C4.216,2.347 5.456,4.372 6.534,6.446C7.039,7.417 7.803,8.089 8.986,8.175C9.454,8.208 9.909,8.407 10.371,8.525C12.958,9.184 15.542,9.907 18.219,8.961C18.264,8.946 18.314,8.948 18.359,8.933C19.613,8.498 20.933,8.193 22.105,7.597C24.609,6.326 26.979,4.824 29.063,2.909C31.111,1.028 33.055,-0.963 34.092,-3.582C35.014,-5.911 36.034,-8.242 36.3,-10.773C36.511,-12.793 36.64,-14.823 36.736,-16.852C36.777,-17.719 36.511,-18.007 35.626,-17.942C34.649,-17.871 33.69,-17.577 32.724,-17.381M37.771,-16.697C37.707,-12.506 36.871,-7.918 35.045,-3.486C33.699,-0.22 31.352,2.133 28.79,4.368C26.733,6.163 24.471,7.676 22.022,8.851C19.869,9.885 17.546,10.515 15.14,10.58C14.158,10.606 13.155,10.348 12.182,10.132C9.588,9.555 6.9,9.318 4.492,8.047C3.44,7.493 2.379,6.957 1.312,6.435C-0.685,5.457 -2.104,3.879 -3.286,2.053C-3.822,1.224 -4.096,0.328 -3.889,-0.665C-3.264,-3.661 -2.283,-6.537 -0.956,-9.296C-0.853,-9.511 -0.687,-9.712 -0.646,-9.938C-0.359,-11.492 0.687,-11.823 2.07,-11.719C2.536,-11.684 3.029,-11.758 3.483,-11.878C7.26,-12.881 11.129,-13.449 14.931,-14.312C18.871,-15.207 22.885,-15.774 26.743,-17.085C29.569,-18.045 32.517,-18.657 35.423,-19.372C36.757,-19.7 38.154,-18.738 37.771,-16.697" style="fill:rgb(35,31,32);fill-rule:nonzero;"/>
            </g>
            <g transform="matrix(1,0,0,1,510.568,299.537)">
                <path d="M0,-16.079C0.017,-15.968 0.032,-15.857 0.048,-15.747C0.823,-15.392 1.59,-14.784 2.46,-15.566C2.675,-15.759 2.743,-16.114 2.878,-16.394C2.563,-16.538 2.209,-16.851 1.938,-16.792C1.272,-16.646 0.644,-16.328 0,-16.079M-0.314,-13.541C-0.146,-12.71 -0.021,-11.906 0.84,-11.514C1.393,-11.262 2.093,-11.416 2.172,-11.9C2.237,-12.299 2.119,-12.92 1.842,-13.142C1.267,-13.603 0.543,-13.93 -0.314,-13.541M-4.466,-5.036C-3.872,-5.41 -3.826,-5.952 -4.113,-6.514C-4.492,-7.255 -4.63,-8.214 -5.643,-8.535C-6.15,-6.162 -6.033,-5.826 -4.466,-5.036M-3.218,-10.323C-2.859,-9.549 -2.572,-8.803 -2.177,-8.12C-1.862,-7.576 -1.264,-7.582 -0.813,-7.88C-0.582,-8.033 -0.365,-8.617 -0.478,-8.805C-0.778,-9.307 -1.223,-9.746 -1.683,-10.122C-2.058,-10.429 -2.492,-10.829 -3.218,-10.323M-12.918,-6.895C-13.652,-6.062 -14.144,-4.417 -13.951,-3.749C-13.803,-3.232 -13.22,-2.763 -12.813,-2.833C-12.278,-2.927 -11.871,-3.678 -12.06,-4.308C-12.306,-5.124 -12.595,-5.927 -12.918,-6.895M-9.757,-6.975C-10.37,-5.945 -10.248,-4.943 -9.728,-3.983C-9.497,-3.557 -9.063,-3.214 -8.538,-3.564C-8.087,-3.865 -7.723,-4.335 -8.031,-4.892C-8.46,-5.665 -8.806,-6.541 -9.757,-6.975M-15.624,-8.454C-15.991,-8.315 -16.24,-8.301 -16.32,-8.177C-16.911,-7.272 -17.493,-6.358 -18.014,-5.412C-18.111,-5.235 -17.99,-4.848 -17.847,-4.646C-17.403,-4.024 -16.658,-4.142 -16.296,-4.957C-15.836,-5.993 -15.604,-7.101 -15.624,-8.454M-17.578,-10.165C-18.207,-10.335 -18.489,-10.509 -18.718,-10.456C-19.6,-10.253 -20.423,-9.927 -21.104,-9.268C-21.575,-8.812 -21.613,-8.365 -21.276,-7.883C-20.963,-7.434 -20.144,-7.326 -19.744,-7.725C-19.054,-8.417 -18.439,-9.185 -17.578,-10.165M3.29,-19.194C3.396,-18.835 3.513,-18.478 3.609,-18.116C3.78,-17.475 4.097,-16.824 4.074,-16.187C4.008,-14.293 4.038,-12.386 3.454,-10.536C2.568,-7.731 1.202,-5.19 -0.596,-2.875C-1.695,-1.46 -3.219,-0.54 -4.619,0.525C-7.64,2.823 -11.17,3.219 -14.775,3.166C-15.986,3.148 -17.202,2.727 -18.396,2.413C-19.633,2.087 -20.35,1.089 -20.998,0.09C-22.323,-1.953 -23.483,-4.085 -23.943,-6.512C-24.26,-8.185 -24.668,-9.836 -24.264,-11.59C-24.024,-12.631 -23.503,-13.187 -22.532,-13.398C-17.796,-14.427 -13.073,-15.53 -8.311,-16.425C-6.189,-16.824 -4.18,-17.54 -2.106,-18.043C-0.319,-18.476 1.404,-19.298 3.312,-19.168L3.29,-19.194Z" style="fill:rgb(237,28,36);fill-rule:nonzero;"/>
            </g>
            <g transform="matrix(1,0,0,1,513.88,307.031)">
                <path d="M0,-26.662C0.967,-26.859 1.926,-27.152 2.902,-27.224C3.787,-27.288 4.054,-27 4.013,-26.133C3.916,-24.104 3.787,-22.074 3.576,-20.055C3.311,-17.523 2.29,-15.193 1.368,-12.863C0.331,-10.244 -1.612,-8.253 -3.66,-6.372C-5.745,-4.457 -8.114,-2.955 -10.618,-1.684C-11.791,-1.089 -13.11,-0.784 -14.364,-0.348C-14.409,-0.333 -14.46,-0.336 -14.505,-0.32C-17.182,0.626 -19.766,-0.098 -22.353,-0.757C-22.814,-0.874 -23.27,-1.073 -23.737,-1.107C-24.921,-1.192 -25.685,-1.865 -26.189,-2.836C-27.268,-4.909 -28.508,-6.934 -29.284,-9.12C-30.392,-12.241 -31.605,-15.383 -31.522,-18.798C-31.518,-19.035 -31.488,-19.272 -31.46,-19.646C-30.478,-19.864 -29.475,-20.087 -28.459,-20.313C-29.161,-15.896 -28.139,-11.857 -25.912,-8.094C-25.265,-6.998 -24.486,-5.965 -23.661,-4.994C-23.287,-4.553 -22.688,-4.244 -22.132,-4.025C-19.68,-3.061 -17.094,-2.837 -14.538,-3.254C-12.743,-3.547 -10.885,-3.844 -9.321,-5.022C-7.959,-6.048 -6.31,-6.739 -5.09,-7.896C-3.621,-9.288 -2.312,-10.916 -1.228,-12.628C-0.118,-14.382 0.974,-16.239 1.211,-18.377C1.457,-20.595 1.634,-22.825 1.713,-25.054C1.752,-26.162 1.334,-26.435 -0.021,-26.688L0,-26.662Z" style="fill:rgb(224,238,203);fill-rule:nonzero;"/>
            </g>
            <g transform="matrix(1,0,0,1,481.156,304.761)">
                <path d="M0,-16.105C0.161,-15.185 0.226,-14.48 0.412,-13.808C1.135,-11.199 1.846,-8.586 2.668,-6.008C2.967,-5.073 3.59,-4.245 4.019,-3.345C4.506,-2.325 4.941,-1.281 5.509,0C4.948,-0.162 4.634,-0.203 4.366,-0.338C2.589,-1.231 0.742,-1.991 -0.711,-3.445C-1.751,-4.486 -2.357,-5.755 -2.946,-7.051C-3.037,-7.252 -3.065,-7.527 -3.012,-7.74C-2.307,-10.544 -1.644,-13.365 0,-16.105" style="fill:rgb(44,100,57);fill-rule:nonzero;"/>
            </g>
            <g transform="matrix(1,0,0,1,492.99,291.867)">
                <path d="M0,-2.495C-0.861,-1.515 -1.476,-0.747 -2.166,-0.056C-2.565,0.344 -3.385,0.235 -3.698,-0.213C-4.035,-0.695 -3.997,-1.142 -3.525,-1.599C-2.845,-2.257 -2.021,-2.583 -1.14,-2.786C-0.911,-2.839 -0.629,-2.665 0,-2.495" style="fill:rgb(35,31,32);fill-rule:nonzero;"/>
            </g>
            <g transform="matrix(1,0,0,1,494.944,295.514)">
                <path d="M0,-4.43C0.021,-3.077 -0.212,-1.969 -0.672,-0.933C-1.034,-0.118 -1.779,0 -2.223,-0.622C-2.366,-0.824 -2.487,-1.211 -2.39,-1.388C-1.869,-2.335 -1.287,-3.248 -0.696,-4.154C-0.616,-4.277 -0.367,-4.291 0,-4.43" style="fill:rgb(35,31,32);fill-rule:nonzero;"/>
            </g>
            <g transform="matrix(-0.941673,0.336529,0.336529,0.941673,502.823,295.974)">
                <path d="M0.747,-3.889C-0.003,-3.161 -0.034,-2.22 -0.177,-1.347C-0.28,-0.719 0.221,-0.4 0.747,-0.267C1.359,-0.115 1.652,-0.583 1.726,-1.063C1.893,-2.142 1.67,-3.127 0.747,-3.889" style="fill:rgb(35,31,32);fill-rule:nonzero;"/>
            </g>
            <g transform="matrix(-0.999666,0.0258407,0.0258407,0.999666,497.524,296.776)">
                <path d="M-0.232,-4.129C-0.53,-3.153 -0.798,-2.343 -1.023,-1.521C-1.196,-0.886 -0.77,-0.146 -0.232,-0.066C0.176,-0.006 0.747,-0.49 0.882,-1.011C1.057,-1.684 0.523,-3.315 -0.232,-4.129" style="fill:rgb(35,31,32);fill-rule:nonzero;"/>
            </g>
            <g transform="matrix(1,0,0,1,507.35,291.456)">
                <path d="M0,-2.242C0.726,-2.748 1.16,-2.348 1.535,-2.041C1.995,-1.665 2.439,-1.225 2.74,-0.723C2.853,-0.535 2.636,0.048 2.404,0.201C1.954,0.499 1.355,0.506 1.041,-0.038C0.646,-0.722 0.358,-1.468 0,-2.242" style="fill:rgb(35,31,32);fill-rule:nonzero;"/>
            </g>
            <g transform="matrix(1,0,0,1,506.102,291.003)">
                <path d="M0,3.499C-1.567,2.709 -1.685,2.373 -1.177,0C-0.164,0.321 -0.026,1.28 0.353,2.021C0.64,2.583 0.594,3.125 0,3.499" style="fill:rgb(35,31,32);fill-rule:nonzero;"/>
            </g>
            <g transform="matrix(-0.550898,0.834572,0.834572,0.550898,513.022,286.398)">
                <path d="M1.189,-2.532C0.394,-2.031 0.267,-1.247 0.335,-0.513C0.367,-0.159 0.82,0.282 1.189,0.447C1.637,0.647 2.152,0.149 2.246,-0.452C2.393,-1.385 1.791,-1.933 1.189,-2.532" style="fill:rgb(35,31,32);fill-rule:nonzero;"/>
            </g>
            <g transform="matrix(1,0,0,1,510.568,283.981)">
                <path d="M0,-0.523C0.644,-0.772 1.272,-1.09 1.938,-1.236C2.209,-1.295 2.563,-0.982 2.878,-0.838C2.743,-0.558 2.675,-0.203 2.46,-0.01C1.59,0.772 0.823,0.164 0.048,-0.191C0.032,-0.301 0.017,-0.412 0,-0.523" style="fill:rgb(35,31,32);fill-rule:nonzero;"/>
            </g>
        </g>
    </g>
</svg>
